!!!COM: Scriabin, Alexander
!!!OTL@@FR: Prélude
!!!OTL@@EN: Prelude
!!!OPR@@FR: 5 Préludes
!!!OPR@@EN: 5 Preludes
!!!OPS: 74
!!!ONM: 1
!!!ODT: 1914
!!!AGN: Prelude
**kern	**kern	**dynam
*staff2	*staff1	*staff1/2
*Ipiano	*Ipiano	*
*clefF4	*clefG2	*
*k[]	*k[]	*
*X:	*X:	*
*M3/4	*M3/4	*
*	*^	*
*	*	*^	*
4BB#X 4F#X 4en	6ee#X	6cc#X	12a\L	.
.	.	.	12g#X\	.
.	12ff#X	12a#X	12gn\J	.
=1	=1	=1	=1	=1
16c#XLL	[4gg	[4b-X	[4f#X\	.
16D#X	.	.	.	.
16AA	.	.	.	.
16AAJJ	.	.	.	.
8AAA	10.gg]	10.b-]	20f#\LL]	.
.	.	.	20fn\	.
.	.	.	20f#X\	.
8r	.	.	.	.
.	10ff#X	10cc#X	20g\	.
.	.	.	20g#X\JJ	.
4BB#X 4F#X 4en	6ee#X	6cc#	12a\L	.
.	.	.	12g#\	.
.	12ff#	12a#X	12gn\J	.
=2	=2	=2	=2	=2
16c#XLL	2gg	2b-X	8f#X\L	.
16D#X	.	.	.	.
16AA	.	.	[8f#\J	.
16AAJJ	.	.	.	.
8AAA	.	.	16f#\LL]	.
.	.	.	16g\	.
8r	.	.	16f#\	.
.	.	.	16fn\JJ	.
4FF#X 4Cn 4G 4d-X	6aa-X	12ccnL	4e\	.
.	.	12bn	.	.
.	12aan	12b-XJ	.	.
=3	=3	=3	=3	=3
[16qqCC/LL	.	.	.	.
[16qqFF#X/JJ	.	.	.	.
2.CC] 2.FF#] 2.E 2.B-X [2.e	[2.bb-X	[2.dd-X	8a\	.
.	.	.	4a\	.
.	.	.	4a\	.
.	.	.	[8a\	.
=4	=4	=4	=4	=4
*^	*	*	*	*
2C 2F#X 2e]	2ryy	4.bb-]	4.dd-]	8a\]	.
.	.	.	.	4a\	.
.	.	8aa	8ddn	8a\	.
4G-X 4c	12fnL	[4aa-X	8ee-XL	[4b--\	.
.	12f-X	.	.	.	.
.	.	.	8eenJ	.	.
.	12e-XJ	.	.	.	.
=5	=5	=5	=5	=5	=5
*	*^	*	*	*	*
4.dn	[2G-X	4.E-X\	2aa-_	[2ff	8b--\]	.
.	.	.	.	.	4b--\	.
[8d-X	.	[8Dn\	.	.	4b--\	.
8d-L]	8G-L]	8D\L]	8aa-L]	8ffL]	.	.
8cJ	8DJ	8AA-X\J	8aa-XJ	8ffJ	[8b--\	.
=6	=6	=6	=6	=6	=6	=6
4.c	4.G-X	4.DD\ 4.AA-X	4.aa-X	4.ff	8b--\]	.
.	.	.	.	.	4b--\	.
*clefG2	*	*	*	*	*	*
8g#X	8d	8r	8bbn	8ff#X	8cc\	.
12aL	4e	4B-X/	[4ccc	8ggnL	[4dd-X\	.
12a-X	.	.	.	.	.	.
.	.	.	.	8gg#XJ	.	.
12gnJ	.	.	.	.	.	.
*clefF4	*	*	*	*	*	*
=7	=7	=7	=7	=7	=7	=7
4.f#X	[2B-X	4.G\	2ccc_	[2aa	8dd-\]	.
.	.	.	.	.	4dd-X\	.
[8fn	.	[8F#X\	.	.	4dd-\	.
8fL]	8B-L]	8F#\L]	8cccL]	8aaL]	.	.
8f-XJ	8AJ	8E-X\J	8ddd-XJ	8ggJ	8cc\	.
*	*v	*v	*	*	*	*
*v	*v	*	*	*	*
=8	=8	=8	=8	=8
8E-XL 8A 8f-X	8ddd-XL	8ggL	8cc\L	.
8E-J 8A 8g	8dddnJ	8bb-XJ	8dd-X\J	.
4F#X 4B-X 4e	8bb-L	4dd-	4a\	.
.	8bb-J	.	.	.
4F# 4c 4b-X	6bbn	6gg	12ee-X\L	.
.	.	.	12ddn\	.
.	12ccc	12een	12dd-X\J	.
=9	=9	=9	=9	=9
16gLL	[4ddd-X	[4ff-X	[4cc\	.
16A	.	.	.	.
16E-X	.	.	.	.
16E-JJ	.	.	.	.
8EE-X	10.ddd-]	10.ff-]	20cc\LL]	.
.	.	.	20cc-X\	.
.	.	.	20ccn\	.
8r	.	.	.	.
.	10ccc	10gg	20dd-X\	.
.	.	.	20ddn\JJ	.
4F#X 4c 4b-X	6bbn	6gg	12ee-X\L	.
.	.	.	12dd\	.
.	12ccc	12een	12dd-X\J	.
=10	=10	=10	=10	=10
16gLL	2ddd-X	2ff-X	8cc\L	.
16A	.	.	.	.
16E-X	.	.	[8cc\J	.
16E-JJ	.	.	.	.
8EE-X	.	.	16cc\LL]	.
.	.	.	16dd-X\	.
8r	.	.	16cc\	.
.	.	.	16b\JJ	.
4BB#X 4F#X 4c#X 4g	6dddn	12ff#XL	4a#X\	.
.	.	12ee#X	.	.
.	12ddd#X	12eenJ	.	.
=11	=11	=11	=11	=11
[16qqFF#X/LL	.	.	.	.
[16qqBB#X/JJ	.	.	.	.
*^	*	*	*	*
2.FF#_ 2.BB#_ [2.A#X [2.e	2.a#X	[2.eee	[2.gg	8dd#X\	.
.	.	.	.	4dd#\	.
.	.	.	.	4dd#\	.
.	.	.	.	[8dd#\	.
=12	=12	=12	=12	=12	=12
2FF#] 2BB#] 2A#] 2e]	2g	2eee]	2gg]	8dd#\]	.
.	.	.	.	4dd#X\	.
.	.	.	.	8dd#\	.
4BB#X 4F#X 4c#X 4g	4rEE	6dddn	12ff#XL	4a#X\	.
.	.	.	12ee#X	.	.
.	.	12ddd#X	12eenJ	.	.
=13	=13	=13	=13	=13	=13
[16qqFF#X/LL	.	.	.	.	.
[16qqBB#X/JJ	.	.	.	.	.
2.FF#_ 2.BB#_ [2.A#X [2.e	2.a#X	[2.eee	[2.gg	8dd#X\	.
.	.	.	.	4dd#\	.
.	.	.	.	4dd#\	.
.	.	.	.	[8dd#\	.
=14	=14	=14	=14	=14	=14
2FF#] 2BB#] 2A#] 2e]	2g	2eee]	2gg]	8dd#\]	.
.	.	.	.	4dd#X\	.
.	.	.	.	8dd#\	.
4BB#X 4F#X 4A#X	4rEE	6ddn	4gn	12f#X\L	.
.	.	.	.	12e#X\	.
.	.	12dd#X	.	12en\J	.
*v	*v	*	*	*	*
=15	=15	=15	=15	=15
[2.FF#X [2.BB#X [2.A#X	[2.ee	[2.g	4d#X\	.
.	.	.	[2dn\	.
=16	=16	=16	=16	=16
2.FF#] 2.BB#] 2.A#]	2.ee]	2.g]	2.d\]	.
*	*	*v	*v	*
*	*v	*v	*
==	==	==
*-	*-	*-
!!!system-decoration: {(*)}
!!!ENC: Bryan Jacob Bell
!!!END: November 2021 to April 2022
!!!PED: Günter Philipp
!!!PTL: Ausgewählte Klavierwerke (Edition Peters)
